src/assets/svg/toggle--night.svg

<svg viewBox="0 0 20 20" xmlns="http://www.w3.org/2000/svg" fill-rule="evenodd" clip-rule="evenodd" stroke-linejoin="round" stroke-miterlimit="1.414"><path d="M10 17.5c.274 0 .5.226.5.5v1.5c0 .274-.226.5-.5.5a.503.503 0 0 1-.5-.5V18c0-.274.226-.5.5-.5zM10 0c.274 0 .5.226.5.5V2c0 .274-.226.5-.5.5a.503.503 0 0 1-.5-.5V.5c0-.274.226-.5.5-.5zm5.303 15.303a.502.502 0 0 1 .707 0l1.061 1.061a.498.498 0 0 1-.347.86.498.498 0 0 1-.36-.153l-1.06-1.06a.5.5 0 0 1 0-.708h-.001zM2.93 2.93a.502.502 0 0 1 .707 0l1.06 1.06a.498.498 0 0 1-.347.86.5.5 0 0 1-.359-.152L2.929 3.636a.502.502 0 0 1 0-.707l.001.001zM17.5 10c0-.274.226-.5.5-.5h1.5c.274 0 .5.226.5.5s-.226.5-.5.5H18a.503.503 0 0 1-.5-.5zM0 10c0-.274.226-.5.5-.5H2c.274 0 .5.226.5.5s-.226.5-.5.5H.5A.503.503 0 0 1 0 10zm15.303-5.303a.502.502 0 0 1 0-.707l1.061-1.061a.5.5 0 0 1 .707.707l-1.06 1.06a.5.5 0 0 1-.708 0v.001zM2.93 17.07a.502.502 0 0 1 0-.707l1.06-1.06a.498.498 0 0 1 .86.347.5.5 0 0 1-.152.359L3.637 17.07a.502.502 0 0 1-.707 0z" fill="#ffcc01" fill-opacity=".494"/></svg>

<?xml version="1.0" encoding="UTF-8" standalone="no"?>
<!DOCTYPE svg PUBLIC "-//W3C//DTD SVG 1.1//EN" "http://www.w3.org/Graphics/SVG/1.1/DTD/svg11.dtd">
<svg width="100%" height="100%" viewBox="0 0 20 20" version="1.1" xmlns="http://www.w3.org/2000/svg" xmlns:xlink="http://www.w3.org/1999/xlink" xml:space="preserve" xmlns:serif="http://www.serif.com/" style="fill-rule:evenodd;clip-rule:evenodd;stroke-linejoin:round;stroke-miterlimit:1.41421;">
    <path d="M10,17.5C10.274,17.5 10.5,17.726 10.5,18L10.5,19.5C10.5,19.774 10.274,20 10,20C9.726,20 9.5,19.774 9.5,19.5L9.5,18C9.5,17.726 9.726,17.5 10,17.5ZM10,0C10.274,0 10.5,0.226 10.5,0.5L10.5,2C10.5,2.274 10.274,2.5 10,2.5C9.726,2.5 9.5,2.274 9.5,2L9.5,0.5C9.5,0.226 9.726,0 10,0ZM15.303,15.303C15.497,15.109 15.816,15.109 16.01,15.303L17.071,16.364C17.169,16.458 17.224,16.588 17.224,16.724C17.224,16.998 16.998,17.224 16.724,17.224C16.588,17.224 16.458,17.169 16.364,17.071L15.304,16.011C15.21,15.917 15.157,15.79 15.157,15.657C15.157,15.524 15.21,15.397 15.304,15.303L15.303,15.303ZM2.93,2.93C3.124,2.736 3.443,2.736 3.637,2.93L4.697,3.99C4.795,4.084 4.85,4.214 4.85,4.35C4.85,4.624 4.624,4.85 4.35,4.85C4.215,4.85 4.085,4.795 3.991,4.698L2.929,3.636C2.735,3.442 2.735,3.123 2.929,2.929L2.93,2.93ZM17.5,10C17.5,9.726 17.726,9.5 18,9.5L19.5,9.5C19.774,9.5 20,9.726 20,10C20,10.274 19.774,10.5 19.5,10.5L18,10.5C17.726,10.5 17.5,10.274 17.5,10ZM0,10C0,9.726 0.226,9.5 0.5,9.5L2,9.5C2.274,9.5 2.5,9.726 2.5,10C2.5,10.274 2.274,10.5 2,10.5L0.5,10.5C0.226,10.5 0,10.274 0,10ZM15.303,4.697C15.109,4.503 15.109,4.184 15.303,3.99L16.364,2.929C16.457,2.839 16.582,2.789 16.711,2.789C16.986,2.789 17.211,3.014 17.211,3.289C17.211,3.418 17.161,3.543 17.071,3.636L16.011,4.696C15.917,4.79 15.79,4.843 15.657,4.843C15.524,4.843 15.397,4.79 15.303,4.696L15.303,4.697ZM2.93,17.07C2.736,16.876 2.736,16.557 2.93,16.363L3.99,15.303C4.084,15.205 4.214,15.15 4.35,15.15C4.624,15.15 4.85,15.376 4.85,15.65C4.85,15.785 4.795,15.915 4.698,16.009L3.637,17.07C3.443,17.264 3.124,17.264 2.93,17.07Z" style="fill:rgb(255,174,84);fill-opacity:0.498039;"/>
</svg>
